X:285
T:B285-  Light o' Love (Earl of Bedford)
Q:1/4=120
L:1/4
M:6/4
K:C
zGcBGE|F3/2 G/ED2D|zGcBGE|F3/2 E/DC2C||\
F3/2 G/FE3/2 D/C|F3/2 G/AD2D|zGcBGE|F3/2 E/DC2C|]

